<jittershader name="default">
	<description>Default Slab </description>
	<param name="tex0" type="int" default="0" />
	<param name="modelViewProjectionMatrix" type="mat4" state="MODELVIEW_PROJECTION_MATRIX" />
	<param name="V" type="mat4" state="VIEW_MATRIX" />
	<param name="textureMatrix0" type="mat4" state="TEXTURE0_MATRIX" />
	<param name="position" type="vec3" state="POSITION" />
	<param name="texcoord" type="vec2" state="TEXCOORD" />
	<language name="glsl" version="1.5">
		<bind param="tex0" program="fp" />
		<bind param="modelViewProjectionMatrix" program="vp" />
		<bind param="textureMatrix0" program="vp" />
		<bind param="position" program="vp" />
		<bind param="texcoord" program="vp" />
		<bind param="V" program="fp" />
		<program name="vp" type="vertex"  >
		<![CDATA[
			#version 330 core
			
			in vec3 position;
			in vec2 texcoord;
			out jit_PerVertex {
				vec2 texcoord;
			} jit_out;
			uniform mat4 modelViewProjectionMatrix;
			uniform mat4 textureMatrix0;
			
			void main(void) {
				gl_Position = modelViewProjectionMatrix*vec4(position, 1.);
				jit_out.texcoord = vec2(textureMatrix0*vec4(texcoord, 0., 1.));
			}
		]]>
		</program>
		
		<program name="fp" type="fragment"  >
		<![CDATA[
			#version 330 core
			uniform mat4 V;
			in jit_PerVertex {
				vec2 texcoord;
			} jit_in;
			layout (location = 0) out vec4 outColor;
			
			uniform sampler2DRect tex0;
			vec3 Decode( vec2 f )
{
    f = f * 2.0 - 1.0;
 
    // https://twitter.com/Stubbesaurus/status/937994790553227264
    vec3 n = vec3( f.x, f.y, 1.0 - abs( f.x ) - abs( f.y ) );
    float t = clamp( -n.z, 0., 1. );
    n.x += n.x >= 0.0 ? -t : t;
    n.y += n.y >= 0.0 ? -t : t;
    return normalize( n );
}
			void main(void) {

				vec4 lookup = texture(tex0, jit_in.texcoord);
				vec3 decodedNor = Decode(lookup.xy);
				lookup.rgb = ( V * vec4(decodedNor, 0.)).xyz;
				outColor = lookup;
			}
		]]>
		</program>
	</language>
</jittershader>
